X: 17
T: 15th Scottish Division
R: waltz
M: 3/4
K: Dmajor
|:ag|f2 fg/f/ ef/e/|d2 A2 dc|B2 g2 fd|e2 e2 fg|
a2 d2 ef|g2 B2 de|f2 fg/f/ ef/e/|d2 d2:|
|:cd|e2 A2 de|f2 d2 fg|a2 af gf|e2 e2 fg|
a2 d2 ef|g2 B2 de|f2 fg/f/ ef/e/|d2 d2:|

